X:1
T:J. S. Bach
T:BWV 934 Little Prelude in C minor
T:Six Little Preludes No. 2
%%score { ( 1 3 ) | 2 }
L:1/8
Q:1/4=184
M:3/4
K:Eb
V:1 treble nm="Harp"
V:3 treble 
V:2 bass 
V:1
"^Presto" cd eG dF | F/4F/4E/4E/4D CE Gc | Fe df ac | c/4=B/4c/4B/4=A GB df | ec Gc =ec | %5
 fc gc ac | dB FB dB | eB fB gB | cA GA ce | BG FG Be | AG FG AE | DE FD B,A, | G,B, EB, G,B, | %13
 A,E B,E CE | B,E CE _DE | C2 E2 A2- | A2 F2 d2- | d2 B2 g2- | gf ed cd | e6 | cd eG dF | %21
 F/4F/4E/4E/4D CE Gc | Fe df ac | c/4=B/4c/4B/4=A GB df | ec Gc =ec | fc gc ac | dB FB dB | %27
 eB fB gB | cA GA ce | BG FG Be | AG FG AE | DE FD B,A, | G,B, EB, G,B, | A,E B,E CE | B,E CE _DE | %35
 C2 E2 A2- | A2 F2 d2- | d2 B2 g2- | gf ed cd | e6 | ga bg bf | =ed ce gb | af _dg =ec | %43
 BG Ac f=A | Bd fa gf | ge dc =Bf | ed ce =AG | ^FG =AF DA | dG ^Fc BG | C^F G=A EC | %50
 B,D ^FG =A,F | G2 B/4=A/4B3/2- B2- | B^c =e=c gB | AB cA F=E | FA =BG dF | EF GE C=B, | %56
 CE ^FD =AC | =B,D FA G=B | df ec G=B | c6 | ga bg bf | =ed ce gb | af _dg =ec | BG Ac f=A | %64
 Bd fa gf | ge dc =Bf | ed ce =AG | ^FG =AF DA | dG ^Fc BG | C^F G=A EC | B,D ^FG =A,F | %71
 G2 B/4=A/4B3/2- B2- | B^c =e=c gB | AB cA F=E | FA =BG dF | EF GE C=B, | CE ^FD =AC | %77
 =B,D FA G=B | df ec G=B | !fermata!c6 |] %80
V:2
 C,2 C2 G,2 | A,2 A,,2 z2 | A,2 F,2 D,2 | G,2 G,,2 z2 | C,2 C2 B,2 | A,2 G,2 F,2 | B,,2 B,2 A,2 | %7
 G,2 F,2 E,2 | A,2 C2 F,2 | G,2 B,2 E,2 | F,2 A,2 F,2 | B,2 B,,2 D,2 | E,2 E,,2 _D,2 | %13
 C,2 B,,2 A,,2 | G,,2 F,,2 E,,2 | A,,E, A,G, F,E, | D,F, B,A, G,F, | G,B, E_D CB, | A,2 B,2 B,,2 | %19
 E,3 B, E2 | C,2 C2 G,2 | A,2 A,,2 z2 | A,2 F,2 D,2 | G,2 G,,2 z2 | C,2 C2 B,2 | A,2 G,2 F,2 | %26
 B,,2 B,2 A,2 | G,2 F,2 E,2 | A,2 C2 F,2 | G,2 B,2 E,2 | F,2 A,2 F,2 | B,2 B,,2 D,2 | %32
 E,2 E,,2 _D,2 | C,2 B,,2 A,,2 | G,,2 F,,2 E,,2 | A,,E, A,G, F,E, | D,F, B,A, G,F, | G,B, E_D CB, | %38
 A,2 B,2 B,,2 | E,3 B, E2 | E,2 E2 _D2 | C2 =E,2 C,2 | F,2 B,,2 C,2 | F,,2 F,2 E,2 | D,2 B,,2 D,2 | %45
 E,2 E2 D2 | C2 =A,2 C2 | D2 D,2 C,2 | B,,2 =A,,2 G,,2 | E,2 D,2 C,2 | D,2 C,2 D,2 | %51
 G,,D, G,B, _DF, | =E,2 C,2 E,2 | F,G, A,2 z2 | =B,,2 G,,2 B,,2 | C,D, E,2 z2 | ^F,,2 D,,2 F,,2 | %57
 G,,2 D,2 E,2 | A,,2 F,,2 G,,2 | C,3 G, C2 | E,2 E2 _D2 | C2 =E,2 C,2 | F,2 B,,2 C,2 | %63
 F,,2 F,2 E,2 | D,2 B,,2 D,2 | E,2 E2 D2 | C2 =A,2 C2 | D2 D,2 C,2 | B,,2 =A,,2 G,,2 | %69
 E,2 D,2 C,2 | D,2 C,2 D,2 | G,,D, G,B, _DF, | =E,2 C,2 E,2 | F,G, A,2 z2 | =B,,2 G,,2 B,,2 | %75
 C,D, E,2 z2 | ^F,,2 D,,2 F,,2 | G,,2 D,2 E,2 | A,,2 F,,2 G,,2 | C,3 G, !fermata!C2 |] %80
V:3
 x6 | x6 | x6 | x6 | x6 | x6 | x6 | x6 | x6 | x6 | x6 | x6 | x6 | x6 | x6 | x6 | x6 | x6 | x6 | %19
 z B G4 | x6 | x6 | x6 | x6 | x6 | x6 | x6 | x6 | x6 | x6 | x6 | x6 | x6 | x6 | x6 | x6 | x6 | x6 | %38
 x6 | z B G4 | x6 | x6 | x6 | x6 | x6 | x6 | x6 | x6 | x6 | x6 | x6 | x6 | x6 | x6 | x6 | x6 | x6 | %57
 x6 | x6 | z G E4 | x6 | x6 | x6 | x6 | x6 | x6 | x6 | x6 | x6 | x6 | x6 | x6 | x6 | x6 | x6 | x6 | %76
 x6 | x6 | x6 | z G !fermata!E4 |] %80

